findly-builder/apps/searchassist/src/assets/icons/sidemenu/new-icons/rules-active.svg

<svg width="16" height="16" viewBox="0 0 16 16" fill="none" xmlns="http://www.w3.org/2000/svg">
<path d="M2.5 2C1.67747 2 1 2.67747 1 3.5V11.5C1 12.3225 1.67747 13 2.5 13H9V12H2.5C2.21853 12 2 11.7815 2 11.5V5H14V9H15V3.5C15 2.67747 14.3225 2 13.5 2H2.5ZM2.5 3H13.5C13.7815 3 14 3.21853 14 3.5V4H2V3.5C2 3.21853 2.21853 3 2.5 3ZM4 7V8H5V7H4ZM6 7V8H12V7H6ZM4 9V10H5V9H4ZM6 9V10H9V9H6Z" fill="#0D6EFD"/>
<path d="M11 11.5C11 10.6758 11.6758 10 12.5 10C13.3242 10 14 10.6758 14 11.5C14 11.8047 13.9062 12.0859 13.75 12.3242C14.3828 12.6719 14.8516 13.2812 15 14H13.9375C13.7266 13.418 13.1641 13 12.5 13C11.8359 13 11.2734 13.418 11.0625 14H10C10.1484 13.2812 10.6172 12.6719 11.25 12.3242C11.0938 12.0859 11 11.8047 11 11.5Z" fill="#0D6EFD"/>
<circle cx="12.5" cy="11.5" r="0.5" fill="#0D6EFD"/>
</svg>

<svg width="16" height="16" fill="none" xmlns="http://www.w3.org/2000/svg"><path d="M2.5 2C1.677 2 1 2.677 1 3.5v8c0 .822.677 1.5 1.5 1.5H9v-1H2.5a.493.493 0 0 1-.5-.5V5h12v4h1V3.5c0-.823-.678-1.5-1.5-1.5h-11Zm0 1h11c.281 0 .5.219.5.5V4H2v-.5c0-.281.219-.5.5-.5ZM4 7v1h1V7H4Zm2 0v1h6V7H6ZM4 9v1h1V9H4Zm2 0v1h3V9H6Z" fill="#0D6EFD"/><path d="M11 11.5c0-.824.676-1.5 1.5-1.5s1.5.676 1.5 1.5c0 .305-.094.586-.25.824A2.502 2.502 0 0 1 15 14h-1.063c-.21-.582-.773-1-1.437-1s-1.227.418-1.438 1H10a2.502 2.502 0 0 1 1.25-1.676A1.497 1.497 0 0 1 11 11.5Z" fill="#0D6EFD"/><circle cx="12.5" cy="11.5" r=".5" fill="#0D6EFD"/></svg>
